X:1
T:12 Gesänge, Op.1
T:Nachtlied
T:12 Gesänge, Op.1
T:2. Nachtlied Night-Song 
T:Robert Franz
T:Ida Hahn-Hahn
T:Creative Commons copyright waiver (CC0 1.0 Universal)
T:Creative Commons copyright waiver (CC0 1.0 Universal)
T:Creative Commons copyright waiver (CC0 1.0 Universal)
T:Creative Commons copyright waiver (CC0 1.0 Universal)
C:Robert Franz
Z:Ida Hahn-Hahn
Z:Creative Commons copyright waiver (CC0 1.0 Universal)
L:1/8
M:4/4
K:Db
V:1 treble nm="Singstimme\nVoice"
V:1
 z8 | z8 | z8 | z8 | z8 | z4 z2!mf! F F | B2 c c d2 z d | f2 e d c2 B c | d4 c2 z F | %9
w: |||||In der|Nacht, in der Nacht da|rau- schen die Bäu- me so|trau- rig, da|
w: |||||In the|night, in the night, the|trees are all rust- ling and|groan- ing, the|
 f2 e d c2 B c | d4 c2 z c | d2 d d d2 e _f | g4 z2 (g2 | _c2) c d __e2 e _f | g4 z2 g2 | %15
w: äch- zen die Lüf- te so|schau- rig, da|schie- ssen die Stern' aus der|Höh', da|flüs- tert das Schiff in dem|See, und|
w: bree- zes so dis- mal- ly|moan- ing, and|shoot down the stars from the|sky, the|bul- rush- es whis- per and|sigh, and|
 B2 B B B2 B _c | d4 z2 d2 | =c2 c c c2 c d | e4 z2!mf! F F |!<(! B2 c c!<)! d2 d d |!f! f4 B2 c2 | %21
w: Al- les, so bäng- lich und|still, weiss|nicht wo es her, noch hin|will und die|Nacht, und die Nacht, hab' ich|schlaf- los ver-|
w: each thing so lone- ly and|still, knows|not why dis- qui- et it|feels and the|night, and the night, I have|passed sleep- less|
 F4 z4 | z8 | z8 | z8 | z4 z2!mf! F F | B2 c c d2 z d | f2 e d c2 B c | d4 c2 z F | f2 e d c2 B c | %30
w: wacht!||||In der|Nacht, in der Nacht ent-|fal- tet die Sehn- sucht die|Schwin- gen, will|Lieb' zum Ge- lieb- tes- ten|
w: quite!||||In the|night, in the night, each|pas- sio- nate im- pulse is|throng- ing and|lov- er for loved one is|
 d4 c2 z c | d2 d d d2 e _f | g4 z2 (g2 | _c2) c d __e2 e _f | g4 z2 g2 | B2 B B B2 B _c | %36
w: drin- gen, ver-|schmel- zen die See- len im|Hauch, ver-|sin- ken im däm- mern- den|Aug', und|Je- des, ob schwei- gend und|
w: long- ing, the|soul melts in sigh- ing a-|way, dis-|\- solved in the eye's soft- ened|ray, and|each knows, though dis- tant and|
 d4 z2 d2 | =c2 c c c2 c d | e4 z2!mf! F F |!<(! B2 c c!<)! d2 d d |!f! f4 B2 c2 | F4 z4 | z8 | %43
w: still, weiss|doch, dass zum An- dern es|will, in der|Nacht, in der Nacht, hab' ich|Dei- ner ge-|dacht.||
w: still, what|feel- ings the oth- er's breast|fill, in the|night, in the night, my thoughts|on thee a-|light.||
 z8 | z8 | z4 z2!mf! F F | B2 c c d2 z d | f2 e d c2 B c | d4 c2 z F | f2 e d c2 B c | d4 c2 z c | %51
w: ||In der|Nacht, in der Nacht da|sah mich der Mond an so|kla- gend, der|Baum schüt- telt's Haupt so ver-|sag- end, manch|
w: ||In the|night, in the night, the|moon looked  down on me com-|plain- ing, the|trees shook their heads with deep|mean- ing, the|
 d2 d d d2 e _f | g4 z2 (g2 | _c2) c d __e2 e _f | g4 z2 g2 | B B B2 B2 B _c | d4 z2 d2 | %57
w: Thrän- lein den Ster- nen ent-|\- floss, ich|war ja ihr Lei- dens- ge-|noss! Und|Al- les sprach: sei doch nur|still, wir|
w: stars sought in weep- ing re-|\- lief, was|I not their part- ner in|grief! And|all things spoke: on- ly be|still, we|
 =c2 c c c2 c d | e4 z2 F F | B2 c c d2 d d | f4 B2 c2 | d4 z4 | z8 | z8 | z8 | z8 |] %66
w: ge- hen, wie Schick- sal es|will. Und die|Nacht, und die Nacht, hast du|schla- fend ver-|bracht!|||||
w: take the path Des- ti- ny|will. And the|night, and the night, thou hast|slept well and|light!|||||

